icon-svg/robinhood.svg

<svg xmlns="http://www.w3.org/2000/svg" viewBox="0 0 24 24"><path fill="#44739e" d="M18.712 2.541a2.87 2.87 0 0 0-1.893-.533 9 9 0 0 0-2.906.525 1.1 1.1 0 0 0-.416.266q-1.698 1.598-3.257 3.337l-.08.088a.078.078 0 0 0 .075.127l.116-.025a50 50 0 0 1 5.006-.809.385.385 0 0 1 .428.39 46 46 0 0 0 .178 4.898l.01.105a.08.08 0 0 0 .058.066h.018a.08.08 0 0 0 .065-.033l.06-.085a46 46 0 0 1 3.01-3.841.62.62 0 0 0 .174-.346c.335-2.146-.183-3.732-.645-4.134Zm-3.663 4.605v-.1a.08.08 0 0 0-.051-.074.08.08 0 0 0-.085.022l-.066.077A48.6 48.6 0 0 0 7.77 17.875l-.043.091a.074.074 0 0 0 .013.086.07.07 0 0 0 .055.024.1.1 0 0 0 .031-.005l.093-.039a46 46 0 0 1 4.83-1.7.37.37 0 0 0 .224-.185c.708-1.378 2.35-4.047 2.35-4.047a.24.24 0 0 0 .032-.15s-.288-3.192-.306-4.807ZM10.8 17.693l-.132.044a33 33 0 0 0-3.255 1.243.26.26 0 0 0-.1.108l-.077.177v.008c-.128.29-.3.725-.378.9l-.058.139a.06.06 0 0 0 .014.065.06.06 0 0 0 .064.01l.137-.065c.311-.148.7-.372 1.117-.568l.014-.007c.784-.372 1.668-.791 2.199-1.046a.35.35 0 0 0 .129-.131l.4-.799a.06.06 0 0 0-.008-.064.06.06 0 0 0-.063-.016Zm-3.19-1.241c.055-.109.315-.607.373-.717l.011-.019a49.4 49.4 0 0 1 6.27-9.155l.067-.077a.08.08 0 0 0 .01-.087.08.08 0 0 0-.079-.04l-.099.014a51 51 0 0 0-4.799.9.63.63 0 0 0-.281.171 54 54 0 0 0-3.349 4.462.7.7 0 0 0-.058.263 35 35 0 0 0 .64 3.474c-.94 2.698-1.779 6.26-1.779 6.26a.08.08 0 0 0 .012.067.08.08 0 0 0 .061.032h.535a.08.08 0 0 0 .075-.051l.037-.1a50 50 0 0 1 1.855-4.389c.161-.334.5-1.008.5-1.008Z"/></svg>

<?xml version="1.0" encoding="UTF-8"?>
<svg width="24px" fill="#44739e" height="24px" viewBox="0 0 24 24" version="1.1" xmlns="http://www.w3.org/2000/svg" xmlns:xlink="http://www.w3.org/1999/xlink">
            <path d="M 18.715,2.533 A 2.872,2.872 0 0 0 16.822,2 8.944,8.944 0 0 0 13.914,2.525 1.1,1.1 0 0 0 13.498,2.791 Q 11.8,4.39 10.24,6.13 l -0.08,0.088 a 0.078,0.078 0 0 0 0.075,0.127 L 10.351,6.32 a 50.433,50.433 0 0 1 5.008,-0.81 0.385,0.385 0 0 1 0.428,0.39 46.124,46.124 0 0 0 0.178,4.9 l 0.01,0.105 a 0.077,0.077 0 0 0 0.058,0.067 h 0.018 a 0.077,0.077 0 0 0 0.065,-0.033 l 0.06,-0.086 a 46.363,46.363 0 0 1 3.012,-3.842 v 0 A 0.624,0.624 0 0 0 19.362,6.665 C 19.697,4.518 19.179,2.931 18.716,2.529 Z M 15.051,7.14 V 7.04 A 0.079,0.079 0 0 0 15,6.966 0.076,0.076 0 0 0 14.915,6.988 l -0.066,0.077 a 48.552,48.552 0 0 0 -7.08,10.808 l -0.043,0.091 a 0.074,0.074 0 0 0 0.013,0.086 0.072,0.072 0 0 0 0.055,0.024 0.07,0.07 0 0 0 0.031,-0.005 L 7.918,18.03 a 46.347,46.347 0 0 1 4.832,-1.7 0.368,0.368 0 0 0 0.224,-0.185 c 0.708,-1.379 2.351,-4.049 2.351,-4.049 a 0.243,0.243 0 0 0 0.032,-0.15 c 0,0 -0.288,-3.193 -0.306,-4.809 z M 10.8,17.691 10.668,17.735 a 33.022,33.022 0 0 0 -3.256,1.244 0.264,0.264 0 0 0 -0.1,0.108 l -0.077,0.177 v 0.008 c -0.128,0.29 -0.3,0.725 -0.378,0.9 l -0.059,0.139 a 0.061,0.061 0 0 0 0.014,0.065 0.057,0.057 0 0 0 0.065,0.01 l 0.137,-0.065 c 0.311,-0.148 0.7,-0.372 1.117,-0.568 l 0.014,-0.007 c 0.784,-0.372 1.669,-0.791 2.2,-1.046 a 0.35,0.35 0 0 0 0.129,-0.131 l 0.4,-0.8 A 0.06,0.06 0 0 0 10.866,17.705 0.059,0.059 0 0 0 10.803,17.689 Z M 7.609,16.45 c 0.055,-0.109 0.315,-0.607 0.373,-0.718 l 0.011,-0.019 a 49.4,49.4 0 0 1 6.273,-9.158 l 0.067,-0.077 a 0.077,0.077 0 0 0 0.01,-0.087 0.079,0.079 0 0 0 -0.079,-0.04 l -0.1,0.014 c -1.6,0.219 -3.208,0.524 -4.8,0.9 a 0.634,0.634 0 0 0 -0.282,0.171 53.846,53.846 0 0 0 -3.35,4.464 0.673,0.673 0 0 0 -0.058,0.263 35.292,35.292 0 0 0 0.64,3.475 c -0.94,2.7 -1.779,6.263 -1.779,6.263 A 0.076,0.076 0 0 0 4.547,21.968 0.078,0.078 0 0 0 4.608,22 h 0.535 a 0.079,0.079 0 0 0 0.075,-0.051 l 0.037,-0.1 C 5.8,20.36 6.424,18.89 7.111,17.458 c 0.161,-0.334 0.5,-1.008 0.5,-1.008 z"/>

</svg>
